public/assets/favicon.svg

<svg width="32" height="32" viewBox="0 0 33 32" fill="none" xmlns="http://www.w3.org/2000/svg">
<path fill-rule="evenodd" clip-rule="evenodd" d="M0.718853 23.6741C0.0303857 22.5104 0.509667 21.0594 1.78936 20.4333L13.4918 14.7079L11.2482 2.79675C11.0816 1.91197 11.4735 1.01679 12.2633 0.478318C13.053 -0.0601576 14.1078 -0.151335 14.995 0.242176L30.9266 7.30856C31.8138 7.70207 32.3841 8.51406 32.4038 9.41155C32.4234 10.309 31.889 11.141 31.0197 11.5663L19.3174 17.2918L21.5609 29.2029C21.8062 30.5054 20.844 31.7422 19.4117 31.9653C17.9795 32.1884 16.6195 31.3133 16.3742 30.0108L14.4289 19.6835L4.28252 24.6476C3.00283 25.2737 1.40732 24.8379 0.718853 23.6741ZM18.3802 12.3162L24.0064 9.56352L17.3015 6.58961L18.3802 12.3162Z" fill="url(#paint0_radial_6_40)"/>
<defs>
<radialGradient id="paint0_radial_6_40" cx="0" cy="0" r="1" gradientUnits="userSpaceOnUse" gradientTransform="translate(13.8416 2.39277) rotate(79.333) scale(27.6926 28.6966)">
<stop stop-color="#8A609F"/>
<stop offset="0.661458" stop-color="#9F6060"/>
<stop offset="1" stop-color="#804D4D"/>
</radialGradient>
</defs>
</svg>

<svg xmlns="http://www.w3.org/2000/svg" width="32" height="32" fill="none" viewBox="0 0 33 32"><path fill="url(#a)" fill-rule="evenodd" d="M.719 23.674c-.689-1.164-.21-2.615 1.07-3.24l11.703-5.726-2.244-11.911c-.166-.885.226-1.78 1.015-2.319a2.85 2.85 0 0 1 2.732-.236L30.927 7.31c.887.393 1.457 1.205 1.477 2.103.02.897-.515 1.729-1.384 2.154l-11.703 5.726 2.244 11.91c.245 1.303-.717 2.54-2.15 2.763-1.431.223-2.792-.652-3.037-1.954L14.43 19.684 4.283 24.648c-1.28.626-2.876.19-3.564-.974ZM18.38 12.316l5.626-2.752-6.704-2.974 1.078 5.726Z" clip-rule="evenodd"/><defs><radialGradient id="a" cx="0" cy="0" r="1" gradientTransform="matrix(5.12592 27.21406 -28.20071 5.31176 13.842 2.393)" gradientUnits="userSpaceOnUse"><stop stop-color="#8A609F"/><stop offset=".661" stop-color="#9F6060"/><stop offset="1" stop-color="#804D4D"/></radialGradient></defs></svg>
